icons/lymph_nodes.svg

<svg width="48" height="48" viewBox="0 0 48 48" fill="none" xmlns="http://www.w3.org/2000/svg">
<path fill-rule="evenodd" clip-rule="evenodd" d="M11.3162 6.05134C10.7923 5.8767 10.226 6.15986 10.0513 6.6838C9.87667 7.20774 10.1598 7.77406 10.6838 7.94871C11.1185 8.09363 11.8342 8.42295 12.5717 8.92399C11.7738 9.3913 10.0154 10 7 10C6.44772 10 6 10.4477 6 11C6 11.5523 6.44772 12 7 12C10.7075 12 13.0328 11.1499 14.1174 10.2867C14.2847 10.4839 14.4403 10.6924 14.5793 10.9121C14.0887 12.0376 14.3475 13.5099 15.3393 14.6136C16.1848 15.5546 17.3534 15.9945 18.4055 15.8757C18.4388 15.935 18.4778 16.012 18.5199 16.1092C18.6689 16.4529 18.858 17.0548 18.9586 18.0269C18.8789 18.0784 18.8014 18.1343 18.7264 18.1947C17.8728 18.8819 17.5168 19.9997 17.6525 21.1918C17.6366 21.1936 17.6202 21.1954 17.6032 21.1971C17.3436 21.2227 17.0274 21.2269 16.6761 21.2133C16.1057 21.1912 15.4973 21.1249 14.9818 21.0569C14.9362 19.5927 13.6562 18.2909 11.9201 18.0407C11.4174 17.9682 10.9265 17.9911 10.4716 18.0941C10.4442 18.0608 10.4082 18.0113 10.3682 17.9414C10.223 17.6873 10 17.1174 10 16C10 15.4477 9.55228 15 9 15C8.44772 15 8 15.4477 8 16C8 17.3827 8.27697 18.3128 8.63176 18.9337C8.66054 18.984 8.68968 19.0321 8.71902 19.0779C8.54752 19.2643 8.40209 19.4709 8.2879 19.6942C7.66316 19.5888 6.87723 19.5 6 19.5C5.44772 19.5 5 19.9477 5 20.5C5 21.0523 5.44772 21.5 6 21.5C6.83061 21.5 7.57025 21.5941 8.13091 21.6974C8.50044 22.8427 9.62579 23.772 11.0642 23.9793C12.3253 24.1611 13.5123 23.7425 14.2426 22.9664C14.2803 22.9764 14.319 22.9843 14.3586 22.99C14.9521 23.0748 15.7925 23.1806 16.5989 23.2118C17.0018 23.2274 17.4168 23.2252 17.7999 23.1874C17.9567 23.1719 18.1235 23.1491 18.2914 23.1138C18.4426 23.3817 18.6194 23.6434 18.8217 23.8948C20.3146 25.7493 22.6568 26.3658 24.1748 25.349C24.5921 25.6171 25.0921 25.9015 25.6408 26.1567C26.0597 26.3516 26.5224 26.5366 27.0108 26.6835L26.9951 26.7116C26.7532 27.146 26.5741 27.5947 26.4552 28.0434C25.4891 28.1415 24.632 28.3974 23.9193 28.718C23.4227 28.9414 22.9687 29.2093 22.5887 29.4966C21.7499 28.873 20.5398 28.6583 19.3473 29.0226C17.9962 29.4353 17.0417 30.4771 16.8147 31.6265C16.0645 31.6592 15.1583 31.6179 14.2187 31.5294C13.6358 31.4746 13.0597 31.4036 12.528 31.3279C12.4833 30.6415 12.236 29.9324 11.7779 29.3035C11.3298 28.6884 10.7468 28.2417 10.1229 27.9857C10.1362 27.9263 10.1507 27.8662 10.1667 27.8059C10.2971 27.3133 10.4875 26.9267 10.7071 26.7071C11.0976 26.3166 11.0976 25.6834 10.7071 25.2929C10.3166 24.9024 9.68342 24.9024 9.29289 25.2929C8.71248 25.8733 8.40288 26.6535 8.23329 27.2941C8.1842 27.4796 8.14423 27.6635 8.11214 27.8411C8.03516 27.8632 7.95913 27.8887 7.88424 27.9178C7.61112 27.4123 7.22216 26.808 6.70711 26.2929C6.31658 25.9024 5.68342 25.9024 5.29289 26.2929C4.90237 26.6834 4.90237 27.3166 5.29289 27.7071C5.68594 28.1002 6.0041 28.6193 6.23057 29.0722C6.29251 29.1961 6.34569 29.3112 6.39001 29.4123C5.97696 30.4438 6.1427 31.758 6.92829 32.8364C8.06647 34.3988 10.0748 34.8745 11.4139 33.8989C11.6552 33.7231 11.8583 33.5122 12.0225 33.2755C12.6446 33.3676 13.3327 33.4549 14.0313 33.5206C15.0821 33.6195 16.2188 33.6763 17.2062 33.607C17.3362 33.8005 17.4912 33.9758 17.6668 34.131C17.3245 34.5914 16.9319 35.1035 16.5631 35.5548C16.3112 35.8632 16.0818 36.1289 15.8942 36.3265C15.4164 36.021 14.8496 35.8009 14.2261 35.7021C12.2123 35.3832 10.3696 36.4512 10.1105 38.0877C9.85126 39.7241 11.2737 41.3093 13.2875 41.6283C15.3013 41.9472 17.1439 40.8792 17.4031 39.2427C17.4799 38.7577 17.4091 38.2773 17.2189 37.8329L17.2305 37.8212C17.499 37.5503 17.807 37.1933 18.1119 36.8203C18.6174 36.2016 19.1566 35.4865 19.568 34.9217C20.0608 34.968 20.5822 34.919 21.1002 34.7608C22.818 34.236 23.8947 32.6945 23.6502 31.2076C23.8776 31.015 24.2365 30.7683 24.7397 30.542C25.1911 30.3389 25.7263 30.1681 26.3284 30.0752C26.4862 31.1225 27.006 32.0274 27.8492 32.5578C27.784 32.9066 27.7187 33.3444 27.6894 33.8126C27.6549 34.3649 27.667 35.01 27.8189 35.6176C27.9125 35.9918 28.0694 36.3899 28.3297 36.7427C27.6392 38.2095 28.5193 40.1194 30.3279 41.043C32.1658 41.9817 34.2666 41.5465 35.0202 40.071C35.1094 39.8965 35.1756 39.7153 35.2202 39.5298C35.5698 39.5274 36.013 39.5053 36.5145 39.437L36.5307 39.4348C36.8187 39.7003 37.2093 40.0291 37.6527 40.3487C38.2263 40.7622 38.9458 41.2027 39.6838 41.4487C40.2077 41.6234 40.774 41.3402 40.9487 40.8163C41.1233 40.2923 40.8402 39.726 40.3162 39.5513C39.8812 39.4063 39.3854 39.1234 38.9103 38.7891C39.5229 38.5294 40.1469 38.1806 40.7419 37.713C41.1761 37.3717 41.2515 36.7431 40.9102 36.3088C40.5689 35.8746 39.9403 35.7993 39.506 36.1405C38.4477 36.9723 37.2304 37.3212 36.2448 37.4553C35.7559 37.5219 35.3372 37.5337 35.0446 37.5291C35.0057 37.5285 34.9691 37.5276 34.935 37.5265C34.8885 37.4354 34.8377 37.3453 34.7828 37.2567C34.3979 36.6359 33.8073 36.0829 33.0569 35.6996C31.9698 35.1444 30.7907 35.0698 29.8529 35.4069C29.8191 35.3341 29.7871 35.244 29.7592 35.1325C29.6767 34.8026 29.6576 34.3852 29.6855 33.9374C29.7061 33.6084 29.7503 33.29 29.7982 33.0187C31.2169 32.9044 32.6801 31.9328 33.5539 30.3636C34.6881 28.3265 34.4431 25.9757 33.0666 24.7886C33.1908 23.731 33.4685 23.0546 33.7236 22.6346C34.556 23.2493 35.6894 23.5549 36.8845 23.3951C39.1069 23.098 40.7008 21.304 40.4447 19.388C40.4169 19.1805 40.3686 18.9802 40.3017 18.7881C40.7386 18.4459 41.2286 18.0215 41.6904 17.5488C42.4198 16.802 43.2032 15.8102 43.4701 14.7426C43.6041 14.2068 43.2783 13.6638 42.7425 13.5299C42.2067 13.3959 41.6638 13.7217 41.5299 14.2575C41.475 14.477 41.3634 14.7208 41.2042 14.9796C41.0874 14.6952 41 14.3593 41 14C41 13.4477 40.5523 13 40 13C39.4477 13 39 13.4477 39 14C39 15.0717 39.4031 15.982 39.8035 16.5917C39.5591 16.8151 39.3154 17.0194 39.0898 17.1969C38.2601 16.596 37.1386 16.2989 35.9569 16.4569C34.4354 16.6603 33.2085 17.5653 32.6681 18.7307C32.0384 18.6158 31.4718 18.4009 31.0039 18.1709C30.8431 18.0918 30.6962 18.0121 30.5649 17.9358C30.7728 17.1663 30.7107 16.279 30.3383 15.4442C30.6595 15.2656 31.0406 15.0372 31.4415 14.7616C32.2662 14.1946 33.2618 13.3692 33.9472 12.2995C34.0484 12.3663 34.1542 12.4276 34.2641 12.4832C35.0332 12.8722 36.0011 12.9806 36.968 12.7142C38.8316 12.2007 39.9855 10.4896 39.5454 8.89226C39.1053 7.29492 37.2378 6.41626 35.3743 6.92971C33.5107 7.44316 32.3568 9.15428 32.7969 10.7516C32.8255 10.8555 32.8601 10.9563 32.9004 11.0539L29.6318 14.3608C29.1189 13.7989 28.4743 13.4225 27.8063 13.2756L27.7301 12.9014C27.681 12.6594 27.6372 12.4355 27.6013 12.2384C28.5628 11.8611 29.3346 10.9841 29.5719 9.84907C29.9354 8.1099 28.9063 6.42332 27.2733 6.08199C25.6403 5.74065 24.0218 6.87382 23.6583 8.61299C23.3237 10.2134 24.1685 11.7693 25.578 12.2734C25.6328 12.6198 25.7072 12.9892 25.7699 13.2987L25.8263 13.5757C25.6562 13.6771 25.5008 13.7961 25.3608 13.9298C24.3807 14.8662 24.1547 16.5281 24.9039 17.9824C25.7891 19.7008 27.7008 20.4787 29.1737 19.7199C29.2573 19.6768 29.3377 19.6297 29.4149 19.5788C29.6186 19.7023 29.8555 19.8349 30.1215 19.9657C30.7371 20.2683 31.5296 20.5716 32.4424 20.7214C32.4584 20.7933 32.4768 20.8641 32.4977 20.934C32.3916 21.0548 32.2842 21.1908 32.1782 21.3437C31.7454 21.968 31.3577 22.8403 31.153 24.0473C30.2537 24.0148 29.3115 24.3439 28.4928 24.9663C27.8367 24.8824 27.1415 24.649 26.4842 24.3433C26.0538 24.1431 25.6617 23.9223 25.3346 23.7164C25.6973 22.4418 25.3404 20.8295 24.2746 19.5054C23.3499 18.3567 22.0993 17.683 20.9205 17.5782C20.796 16.563 20.5798 15.8326 20.3551 15.314C20.2942 15.1735 20.2329 15.049 20.1728 14.9388C21.1276 13.7894 20.9944 11.9302 19.8023 10.6034C18.7654 9.44945 17.2426 9.04907 16.0446 9.50844C14.6262 7.52051 12.3519 6.39656 11.3162 6.05134ZM26.3661 10.4224C25.9286 10.3309 25.4538 9.79815 25.616 9.02219C25.7781 8.24623 26.4266 7.94824 26.8641 8.03968C27.3016 8.13112 27.7764 8.66391 27.6142 9.43987C27.452 10.2158 26.8035 10.5138 26.3661 10.4224ZM36.2219 18.4392C37.1719 18.3122 37.8233 18.6532 38.1709 19.0591C38.1975 19.0985 38.2263 19.1354 38.2572 19.1698C38.374 19.3348 38.4424 19.5044 38.4623 19.6531C38.5366 20.2084 38.0333 21.2238 36.6195 21.4128C35.2057 21.6018 34.4534 20.7543 34.3791 20.199C34.3049 19.6437 34.8082 18.6283 36.2219 18.4392ZM18.8033 13.0783C18.7954 12.74 18.654 12.3178 18.3146 11.9401C17.9753 11.5625 17.5706 11.3768 17.235 11.3329C16.9049 11.2897 16.6923 11.3813 16.5682 11.4927C16.4442 11.6042 16.3304 11.8058 16.3382 12.1387C16.3461 12.477 16.4876 12.8992 16.8269 13.2769C17.1663 13.6545 17.571 13.8402 17.9066 13.8841C18.2367 13.9273 18.4493 13.8357 18.5733 13.7243C18.6974 13.6128 18.8111 13.4112 18.8033 13.0783ZM36.4368 10.786C35.9473 10.9209 35.5063 10.8588 35.2001 10.7147C34.8989 10.573 34.7693 10.3812 34.725 10.2204C34.6807 10.0596 34.6937 9.82844 34.8799 9.55244C35.0691 9.27185 35.416 8.99273 35.9055 8.85786C36.395 8.72299 36.8359 8.78505 37.1422 8.92913C37.4434 9.07086 37.5729 9.2627 37.6172 9.4235C37.6616 9.5843 37.6485 9.81543 37.4624 10.0914C37.2732 10.372 36.9263 10.6511 36.4368 10.786ZM28.644 17.3755C28.7221 17.0462 28.6923 16.6019 28.4597 16.1505C28.2272 15.6992 27.8828 15.417 27.5693 15.2894C27.261 15.1639 27.0321 15.1987 26.8838 15.275C26.7356 15.3514 26.5744 15.5176 26.4976 15.8415C26.4195 16.1708 26.4493 16.6151 26.6818 17.0665C26.9143 17.5178 27.2588 17.8 27.5722 17.9276C27.8806 18.0531 28.1095 18.0183 28.2577 17.942C28.406 17.8656 28.5671 17.6994 28.644 17.3755ZM11.6348 20.0202C12.1374 20.0926 12.5165 20.3261 12.7394 20.5807C12.9587 20.8312 13.0006 21.0589 12.9768 21.224C12.953 21.389 12.8485 21.5956 12.5675 21.774C12.2817 21.9553 11.8521 22.0722 11.3495 21.9997C10.847 21.9273 10.4678 21.6939 10.2449 21.4392C10.0256 21.1888 9.98371 20.9611 10.0075 20.796C10.0313 20.6309 10.1358 20.4243 10.4169 20.246C10.7026 20.0646 11.1323 19.9478 11.6348 20.0202ZM12.3352 39.0163C12.5844 39.2941 13.0184 39.5607 13.6004 39.6529C14.1823 39.745 14.6775 39.6256 15.0003 39.4384C15.3187 39.2539 15.4082 39.0531 15.4277 38.9298C15.4473 38.8066 15.4242 38.588 15.1784 38.3141C14.9292 38.0363 14.4951 37.7697 13.9132 37.6775C13.3313 37.5853 12.8361 37.7048 12.5132 37.892C12.1948 38.0765 12.1053 38.2773 12.0858 38.4005C12.0663 38.5238 12.0894 38.7424 12.3352 39.0163ZM19.9316 30.9353C20.4172 30.787 20.8596 30.8368 21.1697 30.9724C21.4748 31.1057 21.6096 31.2939 21.6583 31.4535C21.707 31.613 21.7004 31.8444 21.522 32.1254C21.3406 32.4111 21.0015 32.6997 20.5159 32.8481C20.0303 32.9964 19.5879 32.9466 19.2778 32.811C18.9727 32.6776 18.8379 32.4894 18.7892 32.3299C18.7405 32.1704 18.7471 31.939 18.9255 31.658C19.1069 31.3723 19.446 31.0837 19.9316 30.9353ZM10.5312 31.6633C10.5579 31.326 10.4603 30.8915 10.1614 30.4811C9.86239 30.0707 9.47879 29.8447 9.14946 29.7667C8.82553 29.69 8.60468 29.7593 8.46986 29.8576C8.33505 29.9558 8.20129 30.1447 8.17501 30.4766C8.14829 30.8139 8.24585 31.2484 8.54482 31.6588C8.84379 32.0692 9.22739 32.2952 9.55672 32.3732C9.88065 32.45 10.1015 32.3806 10.2363 32.2824C10.3711 32.1841 10.5049 31.9952 10.5312 31.6633ZM32.1472 37.4807C32.6885 37.7572 33.0296 38.1553 33.186 38.5034C33.3403 38.847 33.2914 39.0589 33.2391 39.1613C33.1868 39.2636 33.0439 39.4275 32.675 39.5039C32.3013 39.5813 31.7788 39.5383 31.2375 39.2619C30.6963 38.9855 30.3551 38.5873 30.1988 38.2393C30.0444 37.8956 30.0934 37.6837 30.1457 37.5814C30.1979 37.479 30.3409 37.3152 30.7098 37.2387C31.0834 37.1613 31.6059 37.2043 32.1472 37.4807ZM23.1158 23.6476C23.4194 23.4031 23.894 22.2221 22.7166 20.7595C21.5393 19.2969 20.2842 19.5083 19.9805 19.7527C19.6769 19.9971 19.2023 21.1781 20.3797 22.6407C21.5571 24.1033 22.8122 23.892 23.1158 23.6476ZM31.8065 29.3906C30.8671 31.0776 29.4636 31.1725 28.9626 30.8936C28.4617 30.6147 27.8031 29.3716 28.7425 27.6846C29.6818 25.9975 31.0854 25.9026 31.5863 26.1815C32.0873 26.4605 32.7458 27.7036 31.8065 29.3906Z" fill="black"/>
</svg>

<svg
  xmlns="http://www.w3.org/2000/svg"
  width="24"
  height="24"
  viewBox="0 0 24 24"
  fill="none"
  stroke="currentColor"
  stroke-width="2"
  stroke-linecap="round"
  stroke-linejoin="round"
>
  <path
    fill-rule="evenodd"
    d="M11.316 6.051a1 1 0 0 0-.632 1.898c.434.145 1.15.474 1.888.975C11.774 9.391 10.015 10 7 10a1 1 0 1 0 0 2c3.707 0 6.033-.85 7.117-1.713q.253.295.462.625c-.49 1.126-.232 2.598.76 3.702.846.94 2.014 1.38 3.066 1.262q.052.088.115.233c.149.344.338.946.439 1.918q-.12.076-.233.168c-.853.687-1.21 1.805-1.073 2.997l-.05.005c-.26.026-.576.03-.927.016a19 19 0 0 1-1.694-.156c-.046-1.464-1.326-2.766-3.062-3.016a4 4 0 0 0-1.448.053 1 1 0 0 1-.104-.153C10.223 17.687 10 17.117 10 16a1 1 0 1 0-2 0c0 1.383.277 2.313.632 2.934q.043.075.087.144a2.8 2.8 0 0 0-.431.616A14 14 0 0 0 6 19.5a1 1 0 1 0 0 2c.83 0 1.57.094 2.13.197.37 1.146 1.496 2.075 2.934 2.282 1.261.182 2.448-.236 3.179-1.013q.056.015.116.024c.593.085 1.434.19 2.24.222a9 9 0 0 0 1.2-.025c.158-.015.325-.038.492-.073q.228.404.53.78c1.494 1.855 3.836 2.472 5.354 1.455.417.268.917.552 1.466.808.419.195.881.38 1.37.526l-.016.029a5.8 5.8 0 0 0-.54 1.331 8.2 8.2 0 0 0-2.536.675 7 7 0 0 0-1.33.779c-.84-.624-2.05-.839-3.242-.474-1.35.412-2.305 1.454-2.532 2.604-.75.032-1.657-.01-2.596-.098a36 36 0 0 1-1.691-.201 3.9 3.9 0 0 0-.75-2.024 3.9 3.9 0 0 0-1.655-1.318q.02-.09.044-.18c.13-.493.32-.88.54-1.099a1 1 0 0 0-1.414-1.414c-.58.58-.89 1.36-1.06 2.001q-.073.28-.12.547a3 3 0 0 0-.229.077c-.273-.506-.662-1.11-1.177-1.625a1 1 0 0 0-1.414 1.414c.393.393.711.912.938 1.365.062.124.115.24.159.34-.413 1.032-.247 2.346.538 3.424 1.138 1.563 3.147 2.038 4.486 1.063.241-.176.444-.387.609-.623.622.092 1.31.179 2.008.245 1.051.099 2.188.155 3.175.086q.196.291.46.524c-.341.46-.734.972-1.103 1.424-.252.308-.481.574-.669.772a4.4 4.4 0 0 0-1.668-.625c-2.014-.319-3.856.75-4.116 2.386s1.164 3.221 3.178 3.54c2.013.32 3.856-.749 4.115-2.385a2.55 2.55 0 0 0-.184-1.41l.011-.012c.269-.27.577-.628.882-1a46 46 0 0 0 1.456-1.9 4 4 0 0 0 1.532-.16c1.718-.525 2.795-2.067 2.55-3.553.228-.193.587-.44 1.09-.666a6.2 6.2 0 0 1 1.588-.467c.158 1.047.678 1.952 1.521 2.483-.065.349-.13.786-.16 1.255-.034.552-.022 1.197.13 1.805.094.374.25.772.51 1.125-.69 1.466.19 3.376 1.999 4.3 1.838.939 3.939.504 4.692-.972a2.4 2.4 0 0 0 .2-.541c.35-.003.793-.025 1.294-.093l.017-.002c.288.265.678.594 1.122.914.573.413 1.293.854 2.03 1.1a1 1 0 1 0 .633-1.898c-.435-.145-.93-.428-1.406-.762a8 8 0 0 0 1.832-1.076 1 1 0 0 0-1.236-1.572c-1.058.831-2.276 1.18-3.261 1.314a8 8 0 0 1-1.31.072 4 4 0 0 0-.152-.27 4.35 4.35 0 0 0-1.726-1.557c-1.087-.556-2.266-.63-3.204-.293a1.5 1.5 0 0 1-.094-.274c-.082-.33-.101-.748-.073-1.196a8 8 0 0 1 .112-.918c1.419-.115 2.882-1.086 3.756-2.655 1.134-2.038.89-4.388-.487-5.575.124-1.058.401-1.734.657-2.154.832.614 1.965.92 3.16.76 2.223-.297 3.817-2.091 3.56-4.007a3 3 0 0 0-.142-.6c.437-.342.927-.767 1.388-1.24.73-.746 1.513-1.738 1.78-2.805a1 1 0 1 0-1.94-.486 2.7 2.7 0 0 1-.326.723A2.6 2.6 0 0 1 41 14a1 1 0 1 0-2 0c0 1.072.403 1.982.803 2.592-.244.223-.488.427-.713.605-.83-.601-1.951-.898-3.133-.74-1.522.203-2.748 1.108-3.289 2.274a6.4 6.4 0 0 1-1.664-.56 7 7 0 0 1-.44-.235c.209-.77.147-1.657-.226-2.492.322-.178.703-.407 1.104-.682.824-.567 1.82-1.393 2.505-2.463q.152.101.317.184c.77.39 1.737.498 2.704.231 1.864-.513 3.017-2.224 2.577-3.822s-2.307-2.476-4.17-1.962c-1.864.513-3.018 2.224-2.578 3.822q.043.155.103.302l-3.268 3.307c-.513-.562-1.158-.939-1.826-1.085l-.076-.375c-.049-.242-.093-.466-.129-.663.962-.377 1.734-1.254 1.97-2.389.364-1.74-.665-3.426-2.298-3.767s-3.251.792-3.615 2.531c-.334 1.6.51 3.156 1.92 3.66.055.347.13.716.192 1.026l.056.277q-.255.152-.465.354c-.98.936-1.206 2.598-.457 4.052.885 1.719 2.797 2.497 4.27 1.738q.125-.064.24-.141c.205.123.441.256.707.387a8.4 8.4 0 0 0 2.321.755q.024.108.056.213-.16.18-.32.41c-.433.624-.82 1.496-1.025 2.703-.9-.032-1.841.297-2.66.92-.656-.085-1.351-.318-2.009-.624-.43-.2-.822-.42-1.15-.627.363-1.274.006-2.887-1.06-4.21-.924-1.15-2.175-1.823-3.354-1.928-.124-1.015-.34-1.745-.565-2.264a5 5 0 0 0-.182-.375c.955-1.15.821-3.009-.37-4.336-1.038-1.154-2.56-1.554-3.758-1.095-1.419-1.987-3.693-3.111-4.729-3.457m15.05 4.371c-.437-.091-.912-.624-.75-1.4s.81-1.074 1.248-.982c.438.091.912.624.75 1.4s-.81 1.074-1.248.982m9.856 8.017c.95-.127 1.601.214 1.949.62q.04.06.086.11c.117.166.185.335.205.484.075.555-.429 1.57-1.843 1.76s-2.166-.659-2.24-1.214.43-1.57 1.843-1.76m-17.419-5.36c-.008-.339-.149-.761-.488-1.139-.34-.377-.744-.563-1.08-.607-.33-.043-.543.048-.667.16-.124.111-.238.313-.23.646.008.338.15.76.489 1.138.34.378.744.563 1.08.607.33.043.542-.048.666-.16.124-.111.238-.313.23-.646m17.634-2.293c-.49.135-.93.073-1.237-.071-.301-.142-.43-.334-.475-.495s-.031-.392.155-.668c.19-.28.536-.56 1.026-.694.489-.135.93-.073 1.236.071.301.142.43.334.475.495s.032.391-.155.667c-.189.281-.536.56-1.025.695m-7.793 6.59c.078-.33.048-.774-.184-1.226-.233-.45-.577-.733-.89-.86-.309-.126-.538-.091-.686-.015s-.31.243-.386.566c-.079.33-.049.774.184 1.226.232.45.577.733.89.86.309.126.538.091.686.015s.31-.243.386-.567m-17.01 2.644c.503.073.883.306 1.105.56.22.251.262.479.238.644s-.129.372-.41.55c-.285.181-.715.298-1.217.226-.503-.073-.882-.306-1.105-.56-.22-.251-.261-.479-.237-.644.023-.165.128-.372.409-.55.286-.181.715-.298 1.218-.226m.701 18.996c.25.278.683.545 1.265.637s1.078-.027 1.4-.215c.319-.184.408-.385.428-.508s-.004-.342-.25-.616c-.249-.278-.683-.544-1.265-.636-.582-.093-1.077.027-1.4.214-.318.184-.408.385-.427.508-.02.124.003.342.25.616m7.597-8.08c.485-.149.928-.1 1.238.036.305.134.44.322.488.481.049.16.042.391-.136.672-.181.286-.52.575-1.006.723s-.928.099-1.238-.037c-.305-.133-.44-.322-.489-.481-.049-.16-.042-.391.136-.672.182-.286.521-.574 1.007-.723m-9.4.727c.026-.337-.072-.771-.37-1.182-.3-.41-.683-.636-1.013-.714-.323-.077-.544-.008-.68.09-.134.099-.268.288-.294.62-.027.337.07.771.37 1.182.299.41.682.636 1.012.714.324.077.544.008.68-.09.134-.099.268-.288.294-.62m21.615 5.818c.541.276.883.674 1.039 1.022.154.344.105.556.053.658-.052.103-.195.267-.564.343-.374.077-.896.034-1.437-.242-.542-.276-.883-.675-1.04-1.023-.154-.343-.105-.555-.052-.658.052-.102.195-.266.564-.342.373-.078.896-.035 1.437.242m-9.031-13.833c.303-.245.778-1.426-.4-2.889s-2.432-1.25-2.736-1.006c-.303.244-.778 1.425.4 2.888s2.432 1.251 2.736 1.007m8.69 5.743c-.939 1.687-2.342 1.782-2.843 1.503s-1.16-1.522-.22-3.21c.939-1.687 2.342-1.781 2.843-1.503.501.28 1.16 1.523.22 3.21"
    clip-rule="evenodd"
  />
</svg>
